X: 30
M: none
L: 1/8
K: F
cB |\
de |\
fc Ac f3 c | AB cB A3 F | AB cA defg | e2 c2- c2 de |\
fgfe dcBA | bagf e3 c | dB cA BG Ec | A2 F2 F2 |]


